assets/images/sponsors-logos/facebook.svg

<svg xmlns="http://www.w3.org/2000/svg" preserveAspectRatio="xMinYMin" viewBox="0 0 580 114" width="114pt">
  <path d="M322.12133 84.7292c-1.016 7.17187-6.724 10.9296-13.5 10.402-1.69467-.13227-3.22533-.4796-4.60133-1.0176-5.46267-3.13493-7.11334-8.38493-7.59334-11.68187l-.01066.0052c-.37334-5.10146-.776-15.76866 1.712-20.80986 2.11333-3.86347 5.79866-5.96827 10.68933-6.129735 6.94533-.228 12.20133 3.2172 13.23467 10.266665.91733 6.212534.96 12.7584.06933 18.9652m-3.448-47.104665c-8.712-.9308-16.24933 1.709335-22.62 9.3708V.00413616L272.98266 2.7978694V111.56303h23.07067v-6.45626c3.112 2.22083 6.13867 4.89479 9.67867 6.16198 13.44133 4.8177 31.16666.8901 37.368-17.08848 3.98132-11.53387 3.87732-23.35947.88-35.022935-3.324-12.9568-11.94667-20.11-25.30667-21.5328M401.41066 83.5604c-.07736.47973-.15736.95413-.26536 1.426-1.532 6.80573-6.47464 10.4896-13.0653 10.1824-7.08668-.32347-11.948-4.46573-12.63068-11.54747-.49332-5.17293-.53332-10.4552-.104-15.63066.67334-8.170935 5.78268-12.63907 13.44668-12.488 6.3.121865 10.78666 3.6916 12.388 9.74733 1.452 6.0932.3733 16.92453.23066 18.3104m-.976-44.59213c-8.016-2.14427-16.11334-2.117735-24.112.01293-11.97866 3.188135-20.00534 10.767735-22.592 22.82347-1.41334 6.57813-1.69334 13.57186-1.32 20.31666.85334 15.42974 10.39334 26.42034 25.20266 29.83388.208.05.42534.08698.63734.13489h-.00534s.04134.00782.108.02136c.56934.11406 1.14.21979 1.712.30729.19068.01615.38668.03177.57468.05052h.016c.71866.13229 1.58.23021 2.48666.30208 2.89866.3073 6.588.52709 9.668.16407.02134 0 .032-.00521.048-.00782.156-.0026.31466-.0026.47066-.01302 15.29198-.79531 26.89468-10.43646 30.28134-25.22765 1.85864-8.1124 1.85864-16.26453.06134-24.38226-2.812-12.742135-10.54-20.93907-23.23734-24.3364M54.112 38.5864H37.6464V27.63547c1.203066-10.3516 18.30253-8.384934 18.30253-8.384934l.0052-.707866-.0052-.0796V1.4593361h-.00253v-.0025333h-.0136c-.588-.1406667-34.013067-8.0723998-40.6516 17.3666672l-.007734.018666c-.0136.055734-.0292.111466-.0428.1672C14.1864 22.189602 14.2584 36.7552 14.271333 38.5864H0v19.47667h15.1568v52.97756h22.0708V58.06307h16.88173l1.900535-19.47667H54.112M104.85306 84.62347c-.7208 6.74733-6.18013 10.79946-12.63333 10.54533-6.6124-.25733-10.988-3.798-12.41613-10.1428-1.7124-9.02653.2912-19.752.46093-20.62133C81.99266 58.3464 86.4 55.348935 92.86666 55.5c6.34947.1432 11.2448 3.90107 11.95987 10.4792.6708 6.1536.68653 12.48747.02653 18.64427m1.89534-36.7188c-.27027-.29947-.538-.588535-.76867-.829735V47.0724c-.03707-.03693-.06613-.0688-.10373-.106265-.32027-.333865-.54574-.556265-.54574-.556265-5.19693-5.284935-7.1584-6.59947-11.22866-7.8-15.6552-4.610935-30.8964 3.586-35.7224 19.33653-2.9656 9.678534-3.0084 19.64053-1.26987 29.44107 3.755735 21.22556 19.5428 28.33337 36.36933 24.82972 5.16254-1.07604 9-4.29063 12.55934-8.76667 0 0 .3208-.39219.71306-1.15573v9.33958h21.53014V38.6688h-21.53014v9.23587h-.00266M194.03866 106.40521c-.99866-3.65417-2.136-7.25881-3.236-10.74121l-1.03866-3.87187s-26.98534 12.95423-31.19334-11.66093c-.38933-4.06293-.27066-8.25573.28934-12.265066 1.04933-7.566664 5.66533-11.618799 13.00933-12.313064 2.48133-.23587 5.06267-.11667 7.51867.2996 3.344.56453 6.60933 1.57133 10.26933 2.47493 1.272-3.892665 2.57333-7.74373 3.78533-11.6208.19067-.60733.34934-1.131865.47334-1.601065h.00266l.608-2.329735c-.152-.309865-.52-.63013-1.01333-.9432v.00267c-.62-.519335-1.67733-.9516-3.328-1.555735-.66-.2412-1.32267-.455735-1.98533-.662535-.59334-.188-.98-.299465-.98-.299465h.00266c-7.08933-2.027065-14.368-2.183865-21.76133-1.404665-15.584 1.64573-26.16 10.84213-29.09467 26.0224-1.54 7.988-1.468 16.07386.3 24.08533 2.648 11.99743 9.92 19.74951 21.74267 23.21617 7.71467 2.26043 15.62 2.37449 23.48533 1.1474 3.308-.51666 8.052-2.23177 11.45734-3.45312l1.296-.45625-.612-2.075.00266.00521M244.32666 67.910934h-24.928c.12934-4.958264.74934-9.567199 5.15734-12.373999 4.68-2.973335 9.85066-3.0848 14.664-.418665 4.86533 2.687465 5.24666 7.542665 5.10666 12.792664m20.75067 9.948936c-.10267-5.05107-.03467-10.126536-.74933-15.090135C262.35866 49.15787 254.07066 40.5448 240.66933 38.2948c-5.11467-.856265-10.524-.74213-15.72133-.2464-14.224 1.3568-25.02134 10.21667-27.23334 23.54947-1.344 8.08853-1.516 16.67293-.42933 24.79586 1.64 12.22027 7.58933 20.00367 17.884 23.74064h.00533c.044.0026.08934.01042.13467.01615l-.00533.00781c4.69866 1.4047 27.69466 7.41771 47.96666-2.76718l-.81466-2.98386-.028.0052c-.93867-3.98072-2.068-7.91876-3.13067-11.86516l-.11333-.38693s-.42134.15107-1.16934.3896c-.016.00267-.03733.00267-.05333.0052-.88533.2308-1.75867.50107-2.628.79267-.16267.0532-.32133.1032-.48267.15106-3.06933.86414-7.45466 1.9292-12.088 2.5256-3.888.39214-7.81466.40827-11.78.06867-6.43733-1.06507-11.364-4.51293-11.128-12.66507h3.67867c12.62 0 25.23733 0 37.86-.00266.3 0 .60533.00266.904-.00254l-.00267.0052s2.712-.0344 2.82534-.06093c0 0-.00267-.7156 0-.8032l-.04267-4.70413M579.672 39.4292H555.2l-21.2547 33.22867V.07080283L510.87465 2.8666694V111.63437h23.07065V78.34733L555.2 111.68177h24.472l-23.06535-36.1859L579.672 39.4292M480.0933 83.54733c-.0773.4824-.1573.95427-.2653 1.42814-1.53735 6.80573-6.4747 10.4844-13.06535 10.1824-7.08665-.33134-11.94799-4.47094-12.63199-11.5496-.492-5.1708-.53736-10.45254-.108-15.628536.684-8.172934 5.788-12.641199 13.45734-12.490134 6.2893.12187 10.7813 3.6916 12.38265 9.747335 1.44665 6.090135.376 16.927065.23065 18.310395m-.9733-44.589995c-8.01735-2.146935-16.1187-2.1204-24.11734.010935-11.97336 3.19053-20.00136 10.76773-22.588 22.8208-1.412 6.580264-1.69336 13.57186-1.31866 20.3192.848 15.42973 10.3933 26.42246 25.1973 29.8334.212.05052.42936.0875.64136.13541h-.00536s.03736.00782.104.02084c.56936.11406 1.14536.22031 1.71736.30521.19064.01822.384.03697.57464.04739l.016.00521c.724.13281 1.58.23333 2.48136.30469 2.904.30781 6.59864.5276 9.67334.16458.01465-.00521.0253-.00521.04665-.01042.16265-.0026.316-.0026.46665-.01093 15.2947-.7974 26.9-10.44168 30.2867-25.22765 1.85865-8.112 1.85865-16.266666.06665-24.3844C499.54 50.54947 491.8173 42.352135 479.12 38.957335" fill="#4860b0"/>
</svg>

<?xml version="1.0" encoding="UTF-8" standalone="no"?>
<!DOCTYPE svg PUBLIC "-//W3C//DTD SVG 1.1//EN" "http://www.w3.org/Graphics/SVG/1.1/DTD/svg11.dtd">
<svg xmlns="http://www.w3.org/2000/svg" xmlns:xl="http://www.w3.org/1999/xlink" version="1.1" preserveAspectRatio="xMinYMin" viewBox="0 0 580 114" width="580pt" height="114pt" xmlns:dc="http://purl.org/dc/elements/1.1/">
  <metadata> Produced by OmniGraffle 7.5 
    <dc:date>2017-12-02 20:33:32 +0000</dc:date>
  </metadata>
  <defs/>
  <g>
    <g>
      <title>Layer 1</title>
      <path d="M 322.12133 84.7292 C 321.10533 91.90107 315.39733 95.6588 308.62133 95.1312 C 306.92666 94.99893 305.396 94.6516 304.02 94.1136 C 298.55733 90.97867 296.90666 85.72867 296.42666 82.43173 L 296.416 82.43693 C 296.04266 77.33547 295.64 66.66827 298.128 61.62707 C 300.24133 57.7636 303.92666 55.6588 308.81733 55.497335 C 315.76266 55.269335 321.01866 58.714535 322.052 65.764 C 322.96933 71.976534 323.012 78.5224 322.12133 84.7292 M 318.67333 37.624535 C 309.96133 36.693735 302.424 39.33387 296.05333 46.995335 L 296.05333 44.61307 L 296.05333 3.2536027 L 296.05333 2.7978694 L 296.05333 .004136163 L 272.98266 2.7978694 L 272.98266 111.56303 L 296.05333 111.56303 L 296.05333 105.10677 C 299.16533 107.3276 302.192 110.00156 305.732 111.26875 C 319.17333 116.08645 336.89866 112.15885 343.1 94.18027 C 347.08132 82.6464 346.97732 70.8208 343.98 59.157335 C 340.656 46.200535 332.03333 39.047335 318.67333 37.624535" fill="#4860b0"/>
      <path d="M 401.41066 83.5604 C 401.3333 84.04013 401.2533 84.51453 401.1453 84.9864 C 399.6133 91.79213 394.67066 95.476 388.08 95.1688 C 380.99332 94.84533 376.132 90.70307 375.44932 83.62133 C 374.956 78.4484 374.916 73.16613 375.34532 67.99067 C 376.01866 59.819735 381.128 55.3516 388.792 55.50267 C 395.092 55.624535 399.57866 59.19427 401.18 65.25 C 402.632 71.3432 401.5533 82.17453 401.41066 83.5604 M 400.43466 38.96827 C 392.41866 36.824 384.32132 36.850535 376.32266 38.9812 C 364.344 42.169335 356.31732 49.748935 353.73066 61.80467 C 352.31732 68.3828 352.03732 75.37653 352.41066 82.12133 C 353.264 97.55107 362.804 108.54167 377.61332 111.95521 C 377.82132 112.00521 378.03866 112.04219 378.25066 112.0901 L 378.24532 112.0901 C 378.24532 112.0901 378.28666 112.09792 378.35332 112.11146 C 378.92266 112.22552 379.49332 112.33125 380.06532 112.41875 C 380.256 112.4349 380.452 112.45052 380.64 112.46927 L 380.656 112.46927 C 381.37466 112.60156 382.236 112.69948 383.14266 112.77135 C 386.04132 113.07865 389.73066 113.29844 392.81066 112.93542 C 392.832 112.93542 392.84266 112.93021 392.85866 112.9276 C 393.01466 112.925 393.17332 112.925 393.32932 112.91458 C 408.6213 112.11927 420.224 102.47812 423.61066 87.68693 C 425.4693 79.57453 425.4693 71.4224 423.672 63.30467 C 420.86 50.562535 413.132 42.3656 400.43466 38.96827" fill="#4860b0"/>
      <path d="M 54.112 38.5864 L 37.6464 38.5864 L 37.6464 27.63547 C 38.849466 17.28387 55.94893 19.250536 55.94893 19.250536 L 55.95413 18.54267 L 55.94893 18.46307 L 55.94893 1.4593361 L 55.9464 1.4593361 L 55.9464 1.4568028 L 55.9328 1.4568028 C 55.3448 1.3161361 21.919733 -6.615597 15.2812 18.82347 L 15.273466 18.842136 C 15.259866 18.89787 15.244266 18.953602 15.230666 19.009336 C 14.1864 22.189602 14.2584 36.7552 14.271333 38.5864 L 35527137e-22 38.5864 L 35527137e-22 58.06307 L 15.1568 58.06307 L 15.1568 111.04063 L 37.2276 111.04063 L 37.2276 58.06307 L 54.10933 58.06307 L 56.009865 38.5864 L 54.112 38.5864" fill="#4860b0"/>
      <path d="M 104.85306 84.62347 C 104.13226 91.3708 98.67293 95.42293 92.21973 95.1688 C 85.60733 94.91147 81.23173 91.3708 79.8036 85.026 C 78.0912 75.99947 80.0948 65.274 80.26453 64.40467 C 81.99266 58.3464 86.4 55.348935 92.86666 55.5 C 99.21613 55.6432 104.11146 59.40107 104.82653 65.9792 C 105.49733 72.1328 105.51306 78.46667 104.85306 84.62347 L 104.85306 84.62347 M 106.7484 47.90467 C 106.47813 47.6052 106.2104 47.316135 105.97973 47.074935 L 105.97973 47.0724 C 105.94266 47.03547 105.9136 47.0036 105.876 46.966135 C 105.55573 46.63227 105.33026 46.40987 105.33026 46.40987 C 100.13333 41.124935 98.17186 39.8104 94.1016 38.60987 C 78.4464 33.998935 63.2052 42.19587 58.3792 57.9464 C 55.4136 67.624934 55.3708 77.58693 57.10933 87.38747 C 60.865065 108.61303 76.65213 115.72084 93.47866 112.21719 C 98.6412 111.14115 102.47866 107.92656 106.038 103.45052 C 106.038 103.45052 106.3588 103.05833 106.75106 102.29479 L 106.75106 111.63437 L 128.2812 111.63437 L 128.2812 38.6688 L 106.75106 38.6688 L 106.75106 47.90467 L 106.7484 47.90467" fill="#4860b0"/>
      <path d="M 194.03866 106.40521 C 193.04 102.75104 191.90266 99.1464 190.80266 95.664 L 189.764 91.79213 C 189.764 91.79213 162.77866 104.74636 158.57066 80.1312 C 158.18133 76.06827 158.3 71.87547 158.86 67.866134 C 159.90933 60.29947 164.52533 56.247335 171.86933 55.55307 C 174.35066 55.3172 176.932 55.4364 179.388 55.85267 C 182.732 56.4172 185.99733 57.424 189.65733 58.3276 C 190.92933 54.434935 192.23066 50.58387 193.44266 46.7068 C 193.63333 46.09947 193.792 45.574935 193.916 45.105735 L 193.91866 45.105735 L 194.52666 42.776 C 194.37466 42.466135 194.00666 42.14587 193.51333 41.8328 L 193.51333 41.83547 C 192.89333 41.316135 191.836 40.88387 190.18533 40.279735 C 189.52533 40.038535 188.86266 39.824 188.2 39.6172 C 187.60666 39.4292 187.22 39.317735 187.22 39.317735 L 187.22266 39.317735 C 180.13333 37.29067 172.85466 37.13387 165.46133 37.91307 C 149.87733 39.5588 139.30133 48.7552 136.36666 63.93547 C 134.82666 71.92347 134.89866 80.00933 136.66666 88.0208 C 139.31466 100.01823 146.58666 107.77031 158.40933 111.23697 C 166.124 113.4974 174.02933 113.61146 181.89466 112.38437 C 185.20266 111.86771 189.94666 110.1526 193.352 108.93125 L 194.648 108.475 L 194.036 106.4 L 194.03866 106.40521" fill="#4860b0"/>
      <path d="M 244.32666 67.910934 L 219.39866 67.910934 C 219.528 62.95267 220.148 58.343735 224.556 55.536935 C 229.236 52.5636 234.40666 52.452135 239.22 55.11827 C 244.08533 57.805735 244.46666 62.660935 244.32666 67.910934 M 265.07733 77.85987 C 264.97466 72.8088 265.04266 67.733334 264.328 62.769735 C 262.35866 49.15787 254.07066 40.5448 240.66933 38.2948 C 235.55466 37.438535 230.14533 37.55267 224.948 38.0484 C 210.724 39.4052 199.92666 48.26507 197.71466 61.59787 C 196.37066 69.6864 196.19866 78.2708 197.28533 86.39373 C 198.92533 98.614 204.87466 106.3974 215.16933 110.13437 L 215.17466 110.13437 C 215.21866 110.13697 215.264 110.14479 215.30933 110.15052 L 215.304 110.15833 C 220.00266 111.56303 242.99866 117.57604 263.27066 107.39115 L 262.456 104.40729 L 262.428 104.41249 C 261.48933 100.43177 260.36 96.49373 259.29733 92.54733 L 259.184 92.1604 C 259.184 92.1604 258.76266 92.31147 258.01466 92.55 C 257.99866 92.55267 257.97733 92.55267 257.96133 92.5552 C 257.076 92.786 256.20266 93.05627 255.33333 93.34787 C 255.17066 93.40107 255.012 93.45107 254.85066 93.49893 C 251.78133 94.36307 247.396 95.42813 242.76266 96.02453 C 238.87466 96.41667 234.948 96.4328 230.98266 96.0932 C 224.54533 95.02813 219.61866 91.58027 219.85466 83.42813 L 223.53333 83.42813 C 236.15333 83.42813 248.77066 83.42813 261.39333 83.42547 C 261.69333 83.42547 261.99866 83.42813 262.29733 83.42293 L 262.29466 83.42813 C 262.29466 83.42813 265.00666 83.39373 265.12 83.3672 C 265.12 83.3672 265.11733 82.6516 265.12 82.564 L 265.07733 77.85987" fill="#4860b0"/>
      <path d="M 579.672 39.4292 L 555.2 39.4292 L 533.9453 72.65787 L 533.9453 .07080283 L 510.87465 2.8666694 L 510.87465 111.63437 L 533.9453 111.63437 L 533.9453 78.34733 L 555.2 111.68177 L 579.672 111.68177 L 556.60665 75.49587 L 579.672 39.4292" fill="#4860b0"/>
      <path d="M 480.0933 83.54733 C 480.016 84.02973 479.936 84.5016 479.828 84.97547 C 478.29065 91.7812 473.3533 95.45987 466.76265 95.15787 C 459.676 94.82653 454.81466 90.68693 454.13066 83.60827 C 453.63866 78.43747 453.5933 73.15573 454.02266 67.979734 C 454.70666 59.8068 459.81066 55.338535 467.48 55.4896 C 473.7693 55.61147 478.2613 59.1812 479.86265 65.236935 C 481.3093 71.32707 480.23865 82.164 480.0933 83.54733 L 480.0933 83.54733 M 479.12 38.957335 C 471.10265 36.8104 463.0013 36.836935 455.00266 38.96827 C 443.0293 42.1588 435.0013 49.736 432.41466 61.78907 C 431.00266 68.369334 430.7213 75.36093 431.096 82.10827 C 431.944 97.538 441.4893 108.53073 456.2933 111.94167 C 456.5053 111.99219 456.72266 112.02917 456.93466 112.07708 L 456.9293 112.07708 C 456.9293 112.07708 456.96666 112.0849 457.0333 112.09792 C 457.60266 112.21198 458.17866 112.31823 458.75066 112.40313 C 458.9413 112.42135 459.13466 112.4401 459.3253 112.45052 L 459.3413 112.45573 C 460.0653 112.58854 460.9213 112.68906 461.82266 112.76042 C 464.72666 113.06823 468.4213 113.28802 471.496 112.925 C 471.51065 112.91979 471.5213 112.91979 471.54265 112.91458 C 471.7053 112.91198 471.85865 112.91198 472.0093 112.90365 C 487.304 112.10625 498.9093 102.46197 502.296 87.676 C 504.15465 79.564 504.15465 71.409334 502.36265 63.2916 C 499.54 50.54947 491.8173 42.352135 479.12 38.957335" fill="#4860b0"/>
    </g>
  </g>
</svg>
